X:1
T:O Do Some Good Deed Every Day
T:Samuel W. Beazley
T:O Do Some Good Deed Every Day
T:Public Domain
T:Public Domain
C:Samuel W. Beazley
Z:Public Domain
%%score ( 1 2 ) ( 3 4 )
L:1/8
M:4/4
K:G
V:1 treble 
V:2 treble 
V:3 bass 
V:4 bass 
V:1
 [B,D]2 | [DB]3 [DB] [^C^A][DB][E^c][DB] | (D2 ^CC =C2) [CD]2 | [CA]3 [CA] [B,^G][CA][DB][CA] | %4
w: 1.~O|do some good deed ev- ery|day, * * * And|kind words a- long the way;|
w: 2.~O|help a bro- ther bear his|load * * * O’er|up- hill and drear- y road;|
w: 3.~O|seek, and you will al- ways|find * * * The|of good to reap and bind;|
 (B,2 CC B,2) [=FG]2 | [EG]3 [^DF] [EG][DF][EA][_EG] | (D2 DD D2) [DB]2 | %7
w: O * * * sing|glad and cheer- ful song, For|it * * * may|
w: With * * * those|need, share ev- ’ry day The|bless- * * * ings|
w: There’s * * * some-|you can do or say For|Christ * * * the|
 [E^c]3 [Ec] [Ec][GB][GA][Ge] | (F2 GG A2) ||"^Refrain" [Fd]2 | [Gd]3 [DG] [DF][Fc][FB][FA] | %11
w: some weak heart strong. * *||||
w: has sent your way. * *||||
w: ter’s sake each day. * *||||
 (G2 EE D2) [GB]2 | [Gd]3 [GB] [Ac][Ac][GB][GB] | (F2 GG F2) (GF) | [Gd]3 [Gd] [=Fd][FB][FA][FG] | %15
w: ||||
w: ||||
w: ||||
 (E2 ^GG A2) [Ac]2 | [GB]3 [GB] [GB][DG][FA][DA] | (D2 EE D2) |] %18
w: |||
w: |||
w: |||
V:2
 x2 | x8 | A6 x2 | x8 | G6 x2 | x8 | B6 x2 | x8 | d6 || x2 | x8 | G6 x2 | x8 | A6 d2 | x8 | e6 x2 | %16
w: ||speak||a||make||||||||||
w: ||life’s||who||God||||||||||
w: ||sheaves||thing||Mas-||||||||||
 x8 | G6 |] %18
w: ||
w: ||
w: ||
V:3
 [G,,G,]2 | [G,,G,]3 [G,,G,] [G,,G,][G,,G,][G,,G,][G,,G,] | %2
w: ~|~ ~ ~ ~ ~ ~|
 ([D,F,]2 [E,G,][E,G,] [D,F,]2) [D,F,]2 | [D,F,]3 [D,F,] [D,^E,][D,F,][D,G,][D,F,] | %4
w: ~ * * * ~|~ ~ ~ ~ ~ ~|
 (G,2 E,E, D,2) [B,,G,]2 | [C,G,]3 [C,C] [C,C][C,C][C,C][C,G,] | %6
w: ~ * * * ~|~ ~ ~ ~ ~ ~|
 ([G,,G,]2 [B,,G,][D,G,] G,2) (G,=F,) | [E,G,]3 [E,G,] [A,,A,][A,,A,][A,,A,][A,,A,] | %8
w: ~ * * * ~ *|~ ~ ~ ~ O do|
 (A,2 B,B, C2) || [D,C]2 | [G,B,]3 [G,B,] [D,A,][D,E][D,D][D,C] | %11
w: some * * *|deed|ev- ery day, Then will the|
 ([G,B,]2 [G,C][G,C] [G,B,]2) [G,D]2 | [G,B,]3 [G,D] [F,D][F,D][G,D][G,D] | %13
w: lov- * * * ing|Mas- ter say: “Your deeds wrought|
 ([D,D]2 [E,^C][E,C] D,^C,)([B,,D][A,,C]) | [G,,B,]3 [G,B,] [G,B,][G,D][B,,D][B,,D] | %15
w: in * * * * my *|shall be Re- cord- ed as|
 ([C,C]2 [B,,D][B,,D] [A,,C]2) [C,E]2 | [D,D]3 [D,D] [D,D][D,B,][D,C][D,C] | (B,2 CC B,2) |] %18
w: done * * * un-|to Me.” * * * *||
V:4
 x2 | x8 | x8 | x8 | G,,6 x2 | x8 | x4 G,2 G,2 | x8 | D,6 || x2 | x8 | x8 | x8 | x4 D2 x2 | x8 | %15
w: ||||~||~ ~||good|||||name||
 x8 | x8 | G,,6 |] %18
w: |||

